cookie-cog.svg

<svg fill="currentColor" viewBox="0 0 24 24"><path d="M21 12.29V12c0-.5-.04-1-.13-1.5C20.6 10 20 10 20 10h-2V9c0-1-1-1-1-1h-2V7c0-1-1-1-1-1h-1V4c0-1-1-1-1-1a9 9 0 0 0 0 18h.29a7.4 7.4 0 0 1-.29-2v-.41c-.25.25-.6.41-1 .41-.83 0-1.5-.67-1.5-1.5S10.17 16 11 16c.59 0 1.1.35 1.34.84A7 7 0 0 1 19 12c.69 0 1.36.11 2 .29M6.5 13c-.83 0-1.5-.67-1.5-1.5S5.67 10 6.5 10s1.5.67 1.5 1.5S7.33 13 6.5 13m3-4C8.67 9 8 8.33 8 7.5S8.67 6 9.5 6s1.5.67 1.5 1.5S10.33 9 9.5 9m2 5c-.83 0-1.5-.67-1.5-1.5s.67-1.5 1.5-1.5 1.5.67 1.5 1.5-.67 1.5-1.5 1.5m11.2 5.6v-1l1.1-.8c.1-.1.2-.2.1-.3l-1-1.7c0-.1-.2-.1-.3-.1l-1.2.5c-.3-.2-.6-.4-.9-.5l-.2-1.3c0-.1-.1-.2-.2-.2h-2c-.2 0-.3.1-.3.2l-.2 1.3c-.3.2-.5.3-.8.5l-1.2-.5c-.1 0-.2 0-.3.1l-1 1.7c0 .1 0 .2.1.3l1.1.8v1l-1.1.8c-.1.1-.2.2-.1.3l1 1.7c.1.1.2.1.3.1l1.2-.5c.2.2.5.4.8.5l.2 1.3c.1.1.2.2.3.2h2c.1 0 .2-.1.2-.2l.2-1.3c.3-.2.5-.3.8-.5l1.2.4c.1 0 .2 0 .3-.1l1-1.7c.1-.1.1-.2 0-.2zm-3.7.9c-.8 0-1.5-.7-1.5-1.5s.7-1.5 1.5-1.5 1.5.7 1.5 1.5-.7 1.5-1.5 1.5"/></svg>

<svg  viewBox="0 0 24 24" fill="currentColor"><path  d="M21 12.29C21 12.19 21 12.1 21 12C21 11.5 20.96 11 20.87 10.5C20.6 10 20 10 20 10H18V9C18 8 17 8 17 8H15V7C15 6 14 6 14 6H13V4C13 3 12 3 12 3C7.03 3 3 7.03 3 12S7.03 21 12 21C12.1 21 12.19 21 12.29 21C12.11 20.36 12 19.69 12 19C12 18.86 12 18.73 12 18.59C11.75 18.84 11.4 19 11 19C10.17 19 9.5 18.33 9.5 17.5S10.17 16 11 16C11.59 16 12.1 16.35 12.34 16.84C13.25 14.03 15.89 12 19 12C19.69 12 20.36 12.11 21 12.29M6.5 13C5.67 13 5 12.33 5 11.5S5.67 10 6.5 10 8 10.67 8 11.5 7.33 13 6.5 13M9.5 9C8.67 9 8 8.33 8 7.5S8.67 6 9.5 6 11 6.67 11 7.5 10.33 9 9.5 9M11.5 14C10.67 14 10 13.33 10 12.5S10.67 11 11.5 11 13 11.67 13 12.5 12.33 14 11.5 14M22.7 19.6V18.6L23.8 17.8C23.9 17.7 24 17.6 23.9 17.5L22.9 15.8C22.9 15.7 22.7 15.7 22.6 15.7L21.4 16.2C21.1 16 20.8 15.8 20.5 15.7L20.3 14.4C20.3 14.3 20.2 14.2 20.1 14.2H18.1C17.9 14.2 17.8 14.3 17.8 14.4L17.6 15.7C17.3 15.9 17.1 16 16.8 16.2L15.6 15.7C15.5 15.7 15.4 15.7 15.3 15.8L14.3 17.5C14.3 17.6 14.3 17.7 14.4 17.8L15.5 18.6V19.6L14.4 20.4C14.3 20.5 14.2 20.6 14.3 20.7L15.3 22.4C15.4 22.5 15.5 22.5 15.6 22.5L16.8 22C17 22.2 17.3 22.4 17.6 22.5L17.8 23.8C17.9 23.9 18 24 18.1 24H20.1C20.2 24 20.3 23.9 20.3 23.8L20.5 22.5C20.8 22.3 21 22.2 21.3 22L22.5 22.4C22.6 22.4 22.7 22.4 22.8 22.3L23.8 20.6C23.9 20.5 23.9 20.4 23.8 20.4L22.7 19.6M19 20.5C18.2 20.5 17.5 19.8 17.5 19S18.2 17.5 19 17.5 20.5 18.2 20.5 19 19.8 20.5 19 20.5Z"/></svg>
